assets/dist/images/landing-pages/workflows/lines.svg

<svg xmlns="http://www.w3.org/2000/svg" xmlns:xlink="http://www.w3.org/1999/xlink" width="168" height="169" viewBox="0 0 168 169">
  <defs>
    <rect id="lines-a" width="168" height="168" x="35.621" y="35.377"/>
  </defs>
  <g fill="none" fill-rule="evenodd" transform="rotate(135 109.102 94.397)">
    <mask id="lines-b" fill="#fff">
      <use xlink:href="#lines-a"/>
    </mask>
    <path stroke="#EFDFB1" stroke-linecap="round" stroke-linejoin="round" stroke-width="4" d="M37.5-7.21646341L37.5 247.434132M19.5-7.21646341L19.5 247.434132M1.5-7.21646341L1.5 247.434132M-18.5-7.21646341L-18.5 247.434132M-36.5-7.21646341L-36.5 247.434132M217.5-7.21646341L217.5 247.434132M235.5-7.21646341L235.5 247.434132M253.5-7.21646341L253.5 247.434132M271.5-7.21646341L271.5 247.434132M73.5-7.21646341L73.5 247.434132M91.5-7.21646341L91.5 247.434132M109.5-7.21646341L109.5 247.434132M127.5-7.21646341L127.5 247.434132M145.5-7.21646341L145.5 247.434132M163.5-7.21646341L163.5 247.434132M55.5-7.21646341L55.5 247.434132" mask="url(#lines-b)"/>
    <path fill="#FBFBFB" stroke="#EFDFB1" mask="url(#lines-b)"/>
    <path stroke="#EFDFB1" stroke-linecap="round" stroke-linejoin="round" stroke-width="4" d="M181.5-7.21646341L181.5 247.434132M199.5-7.21646341L199.5 247.434132" mask="url(#lines-b)"/>
  </g>
</svg>

<svg xmlns="http://www.w3.org/2000/svg" xmlns:xlink="http://www.w3.org/1999/xlink" width="168" height="169" viewBox="0 0 168 169"><defs><path id="a" d="M35.621 35.377h168v168h-168z"/></defs><g fill="none" fill-rule="evenodd" transform="rotate(135 109.102 94.397)"><mask id="b" fill="#fff"><use xlink:href="#a"/></mask><path stroke="#EFDFB1" stroke-linecap="round" stroke-linejoin="round" stroke-width="4" d="M37.5-7.216v254.65m-18-254.65v254.65M1.5-7.216v254.65m-20-254.65v254.65m-18-254.65v254.65m254-254.65v254.65m18-254.65v254.65m18-254.65v254.65m18-254.65v254.65M73.5-7.216v254.65m18-254.65v254.65m18-254.65v254.65m18-254.65v254.65m18-254.65v254.65m18-254.65v254.65M55.5-7.216v254.65m126-254.65v254.65m18-254.65v254.65" mask="url(#b)"/></g></svg>
